X:14407
T:The Children
H:
C:John Barnes
B:Scots Guards III(52) / Neil Dickie's First Book
O:Kevin Fraser
Z:Kevin Fraser
Q:1/4=90
K:HP
M:4/4
L:1/8
R:March
U: R = ///
U: r = //
U: V = !accent!
V:M gstem=up stem=down name="Melody"
V:H gstem=up stem=down name="Harmony"
V:C gstem=up stem=down name="C-Harmony"
V:S gstem=up stem=down dyn=up stafflines=1 clef=perc middle=G name="Snare" sname="Snare"" sname="Snare"
V:B gstem=up stem=down clef=none dyn=up name="Bass"
V:T gstem=up stem=down clef=none dyn=up name="Tenor"
V:BB gstem=up stem=down name="Brass Bass" sname="ABCD-C" transpose=-1  octave=-1 clef=bass
V:BC gstem=up stem=down name="Brass Chord" sname="ABCD-D" transpose=-1
V:BD gstem=up stem=down name="Brass Chord 2" sname="ABCD-B" transpose=-1
V:P gstem=up stem=down name="Piano" octave=-1
I:MIDI=program 110
I:linebreak $
% %score {M H}
%%MIDI program 109 #bagpipes
%%MIDI vol 100
%%landscape off
%%landscape
[V:M] f	| {g}A2 {GdGe}Aa {fg}f2 {gef}ed | {g}B<d {e}G{d}B {G}A3 {d}B   | {g}A2     {GdGe}Aa {f}g>f      {gef}ed | {g}f<a {f}gf {gef}e3 f | $
[V:M]	| {g}A2 {GdGe}Aa {fg}f2 {gef}ed | {g}B<d {e}G{d}B {G}A3    f   | {gf}g>f   {g}ed    {gcd}c{e}A  {g}c<e  | {g}f<a {f}ge {Gdc}d3   || $
[V:M]A	| {g}f<a {fg}fA  {g}A>g {ef}eA  | {g}B<d {e}G{d}B {G}A3    d   | {g}B<{d}G {g}B<d   {gf}g>f     {gef}ed | {g}f<a {f}gf {gef}e3 A | $
[V:M]	| {g}f<a {fg}fA  {g}A>g {ef}eA  | {g}B<d {e}G{d}B {G}A3    f   | {gf}g>f   {g}ed    {gcd}c{e}A  {g}c<e  | {g}f<a {f}ge {Gdc}d3   || $
[V:M]A	| {g}f>e {Gdc}df {g}A2  {GAG}Ad | {g}B<d {e}G{d}B {G}A3 {GAG}A | {g}f>g     ag      {a}f<a       Ad	| {g}f<a {f}gf {gef}e3 A | $
[V:M]	| {g}f>e {Gdc}df {g}A2  {GAG}Ad | {g}B<d {e}G{d}B {G}A3    f   | {gf}g>f   {g}ed    {gcd}c{e}A  {g}c<e  | {g}f<a {f}ge {Gdc}d3   || $
[V:M]A	| {ag}a3     A   {gf}g>a {f}gA  | {g}B<d {e}G{d}B {G}A3    f   | {gf}g2    {a}e2    {g}c3             A | {g}f<a {f}gf {gef}e3 A | $
[V:M]	| {ag}a3     A   {gf}g>a {f}gA  | {g}B<d {e}G{d}B {G}A3    f   | {gf}g>f   {g}ed    {gcd}c{e}A  {g}c<e  | {g}f<a {f}ge {Gdc}d3   || $





